X:90
T:Scarce o' Tatties
C:Norman MacLean
M:6/8
L:1/8
K:A Dor
"Am"A2e efg|"G"edB d"Em"BG|"Am"A2e efg|"G"edB "Am"Ace |
"Am"az2 "C"gz2|"D"fz2 "Em"ezA|"Am"A2e efg|"G"edB "Am"A3:|
|:"Am"aeg a2e |"G"g2f  "Am"eAA|aeg a2e |"G"g2f "Em"e3 |
"Am"eee AAA|"D7"d2f  fed|"Am"A2e efg|"G"edB "Am"Az2:|
